X: 928
T:Snowball
R:H
C:Alan Munde
S:Learnt from a live recording of a Country Gazette concert
M:4/4
L:1/8
Q:180
K:D
(3ABc|"D"dzde fedA|"A"cAce agfe|"C"=czcd edcA|"G"BAB=c dcBA|
GFGA BGDG|"D"FGAB AFDE|1FE FE DEDB,|"A"A,2 (3A,A,A, A,2:|2"D"FEDF "A" 
EDCE|"D"DCDE D2||
"G"BGDB GDBG|DBGD BGD2|"F"=FDFG AFDA|=FDAF DAFD|
"E"E^DE^F ^G^FGA |"A"BABc dcde |"A"a^gae =gfge |fefg feBc|
"D"dcde fedA|"A"cAce agfe|"C"=cBcd edcA|"G"BAB=c dc BA|
GFGA BGDG|"D"FGAB AFDE|FEDF "A"EDCE|"D"DFAc d2|

